src/icons/aws-dnszone.svg

<?xml version="1.0" encoding="UTF-8"?>
<svg xmlns="http://www.w3.org/2000/svg" xmlns:xlink="http://www.w3.org/1999/xlink" width="32" height="32" viewBox="0 0 32 32" version="1.1">
<g id="surface1">
<path style=" stroke:none;fill-rule:evenodd;fill:rgb(61.56863%,31.37255%,14.509805%);fill-opacity:1;" d="M 16.078125 1.363281 C 16.21875 1.359375 16.351562 1.402344 16.464844 1.484375 C 18.136719 3.332031 19.769531 3.949219 21.246094 3.949219 C 24.214844 3.949219 30.867188 6.023438 30.980469 5.894531 L 30.980469 7.285156 C 30.863281 7.425781 28.589844 10.054688 28.71875 13.152344 C 28.792969 14.996094 29.714844 16.242188 30.488281 17.582031 C 30.796875 18.109375 31.605469 19.621094 31.605469 19.621094 L 31.605469 20.960938 C 31.605469 21.386719 31.558594 21.808594 31.472656 22.226562 C 29.949219 29.65625 22.628906 26.65625 16.703125 31.484375 C 16.625 31.554688 16.523438 31.597656 16.417969 31.605469 C 16.332031 31.601562 16.25 31.558594 16.203125 31.484375 C 12.605469 27.183594 1.523438 30.769531 0.152344 22.226562 C 0.0625 21.734375 0.0117188 21.238281 0.00390625 20.738281 L 0.00390625 19.375 C 0.00390625 19.375 0.808594 17.589844 1.058594 17.160156 C 1.664062 16.09375 2.316406 15.097656 2.386719 13.46875 C 2.511719 10.757812 0.25 7.933594 0.15625 7.796875 L 0.15625 6.40625 C 0.273438 6.523438 7.722656 3.769531 10.804688 3.769531 C 12.34375 3.769531 14.082031 3.214844 15.828125 1.476562 C 15.894531 1.410156 15.984375 1.371094 16.078125 1.363281 M 16.078125 1.363281 "/>
<path style=" stroke:none;fill-rule:evenodd;fill:rgb(96.078432%,52.156866%,21.176471%);fill-opacity:1;" d="M 16.078125 0 C 16.21875 -0.00390625 16.351562 0.0390625 16.464844 0.121094 C 18.136719 1.972656 19.769531 2.585938 21.246094 2.585938 C 24.214844 2.585938 26.347656 0.226562 26.460938 0.101562 L 30.980469 5.90625 C 30.863281 6.046875 28.589844 8.675781 28.71875 11.773438 C 28.871094 15.414062 32.292969 16.730469 31.449219 20.847656 C 29.925781 28.277344 22.609375 25.277344 16.679688 30.105469 C 16.601562 30.175781 16.503906 30.21875 16.398438 30.226562 C 16.308594 30.226562 16.226562 30.179688 16.179688 30.105469 C 12.585938 25.804688 1.5 29.390625 0.128906 20.847656 C -0.628906 16.164062 2.222656 15.59375 2.359375 12.078125 C 2.484375 9.367188 0.222656 6.542969 0.128906 6.40625 L 5.390625 0.105469 C 6.84375 1.496094 8.757812 2.308594 10.769531 2.390625 C 12.3125 2.390625 14.046875 1.839844 15.792969 0.101562 C 15.871094 0.03125 15.972656 -0.00390625 16.078125 0 M 16.078125 0 "/>
</g>
</svg>

<svg role="img" viewBox="0 0 32 32" xmlns="http://www.w3.org/2000/svg"><path d="M16.078 1.363c.14-.004.274.04.387.121 1.672 1.848 3.305 2.465 4.781 2.465 2.969 0 9.621 2.074 9.734 1.946v1.39c-.117.14-2.39 2.77-2.261 5.867.074 1.844.996 3.09 1.77 4.43.308.527 1.116 2.04 1.116 2.04v1.339c0 .426-.046.848-.132 1.266-1.524 7.43-8.844 4.43-14.77 9.257a.472.472 0 0 1-.285.121.267.267 0 0 1-.215-.12c-3.598-4.301-14.68-.715-16.05-9.258a9.065 9.065 0 0 1-.15-1.489v-1.363S.81 17.59 1.06 17.16c.605-1.066 1.257-2.062 1.328-3.691C2.512 10.758.25 7.934.157 7.797v-1.39c.116.116 7.566-2.637 10.648-2.637 1.539 0 3.277-.555 5.023-2.293a.4.4 0 0 1 .25-.114m0 0" style="stroke:none;fill-rule:evenodd;fill:rgb(61.56863%,31.37255%,14.509805%);fill-opacity:1"/><path d="M16.078 0c.14-.004.274.04.387.121 1.672 1.852 3.305 2.465 4.781 2.465 2.969 0 5.102-2.36 5.215-2.484l4.52 5.804c-.118.14-2.391 2.77-2.262 5.867.152 3.641 3.574 4.957 2.73 9.075-1.523 7.43-8.84 4.43-14.77 9.257a.461.461 0 0 1-.28.122.26.26 0 0 1-.22-.122c-3.593-4.3-14.679-.714-16.05-9.257-.758-4.684 2.094-5.254 2.23-8.77C2.484 9.368.223 6.543.13 6.406l5.26-6.3a8.26 8.26 0 0 0 5.38 2.284c1.543 0 3.277-.551 5.023-2.29a.401.401 0 0 1 .285-.1m0 0" style="stroke:none;fill-rule:evenodd;fill:rgb(96.078432%,52.156866%,21.176471%);fill-opacity:1"/></svg>
